X:21095 
T:IRISHWOMAN, The 
B:DMI.0317
Z:Nordberg/Black
N:Also (and more widely) known as "Irish Washerwoman". Is the
new title evidence of the Chief's "political correctness"?
R:jig
%Q:1/4=160
M:6/8
L:1/8
K:G
c|BGG DGG|BGB dcB|cAA FAA|cAc edc|
BGG DGG|BGB dcB|cBc Adc|BGG G2:|
g|gdg gdg|gdg bag|fdf fdf|fdf agf|
egg dgg|cgg Bgg|cAc Adc|BGG G2:|

%%%

